X: 39799
T: Theme Vannitaise
R: reel
M: 4/4
K: Eminor
|:E2 B2 B2 AB|G2 E2 E4|A2 AG F2 FE|1 DEFA G2 F2:|2 DEFA E4||
|:EFGF EFGF|EFGA B2 G2|DEFE D3 E|1 F2 A2 G2 F2:|2 G2 F2 E4||

